X:1
T:Title
%%score { ( 1 3 ) | ( 2 4 ) }
L:1/8
Q:1/4=100
M:4/4
K:Ab
V:1 treble nm="Grand Piano"
V:3 treble 
V:2 bass 
V:4 bass 
V:1
 [CA]3 [DB] [CA]2 [CE]2 | [DF]2 [DA]2 [CA]4 | B3 c B2 E2 | [EA]2 [EB]2 [Ec]4 | %4
w: W.~J.~Kirkpatrick * * *||||
 [Fd]3 [Fd] [Fd]2 [FA][=EB] | [Ec]2 [Ec]2 [Ac]4 | [GB]3 [GB] c2 B2 |[M:7/8] c2 [A=d]2 [Ge]3 | %8
w: ||||
[M:1/4] E>E |[M:4/4] B2 B2 B2 c2 | A6 z2 | d2 d2 d2 e2 |[M:3/4] c6 |[M:1/4] c>d | %14
w: ||||||
[M:4/4] e2 e2 c2 A2 | d6 z2 | [CEA]2 [CE]2 [EAc]3 [DGB] | %17
w: |||
[M:11/8] [CEA]-[CEA]-[CEA]-[CEA]-[CEA]-[CEA]- [CEA]3 z2 |] %18
w: |
V:2
 [A,,E,]3 [A,,E,] [A,,E,]2 [A,,A,]2 | [D,A,]2 [D,F,]2 [A,,E,]4 | %2
 [E,G,E]3 [E,A,E] [E,G,E]2 [D,B,]2 | [C,A,]2 [B,,G,]2 [A,,A,]4 | [D,A,]3 [D,A,] [D,A,]2 [D,A,]2 | %5
 [A,,A,]2 [A,C]2 [A,E]4 | [E,E]3 [E,E][K:treble] [A,EA]2 [G,E]2 | %7
[M:7/8] [A,EA]2[K:bass] [F,B,]2 [E,B,]3 |[M:1/4] E,>E, |[M:4/4] [E,G,D]2 [E,G,D]2 [E,G,D]2 [E,E]2 | %10
 [A,,E,]2 [D,F,]2 [A,,E,]2 [A,CE]>[A,CE] | [G,B,E]2 [G,B,E]2 [G,B,E]2 [G,B,E]2 |[M:3/4] E6 | %13
[M:1/4][K:treble] [A,E]>[A,B,E] |[M:4/4] [A,CA]2 [A,CA]2 [A,E]2 [A,C_G]2 | %15
 [D,A,]2 [D,A,]2 [D,A,]2 [D,A,]>D, | E,2 E,2 E,3 E, |[M:11/8] A,,-A,,-A,,-A,,-A,,-A,,- A,,3 z2 |] %18
V:3
 x8 | x8 | x8 | x8 | x8 | x8 | x8 |[M:7/8] x7 |[M:1/4] x2 |[M:4/4] x8 | C2 D2 C2 A>A | x8 | %12
[M:3/4] z2 A,2 A,2 |[M:1/4] x2 |[M:4/4] x8 | F2 F2 F2 [Fc]>[DFB] | x8 |[M:11/8] x11 |] %18
V:4
 x8 | x8 | x8 | x8 | x8 | x8 | x4[K:treble] x4 |[M:7/8] x2[K:bass] x5 |[M:1/4] x2 |[M:4/4] x8 | %10
 x8 | x8 |[M:3/4] A,2 E,2 z2 |[M:1/4][K:treble] x2 |[M:4/4] x8 | x8 | x8 |[M:11/8] x11 |] %18

